chrome/img/svgs/servers-icon.svg

<?xml version="1.0" encoding="UTF-8"?>
<svg width="237px" height="236px" viewBox="0 0 237 236" version="1.1" xmlns="http://www.w3.org/2000/svg" xmlns:xlink="http://www.w3.org/1999/xlink">
    <!-- Generator: Sketch 42 (36781) - http://www.bohemiancoding.com/sketch -->
    <title>servers-icon</title>
    <desc>Created with Sketch.</desc>
    <defs>
        <radialGradient cx="50%" cy="0%" fx="50%" fy="0%" r="233.931224%" id="radialGradient-1">
            <stop stop-color="#FFFFFF" offset="0%"></stop>
            <stop stop-color="#FAFAFA" offset="9.21513762%"></stop>
            <stop stop-color="#FAFAFA" offset="9.21513762%"></stop>
            <stop stop-color="#FFFFFF" offset="23.3723474%"></stop>
            <stop stop-color="#31A217" offset="100%"></stop>
        </radialGradient>
        <path d="M196.207574,99.5553582 C200.4302,95.4938763 203.085261,89.8078018 203.085261,83.4812155 C203.085261,71.1495259 193.106737,61.1492005 180.796462,61.1492005 L22.3132999,61.1492005 C10.0054738,61.1492005 0.0245004543,71.1470718 0.0245004543,83.4812155 C0.0245004543,95.8153592 10.0030245,105.813231 22.3132999,105.813231 L139.782621,105.813231 C134.563123,110.201103 130.249873,115.617231 127.104948,121.737675 L22.3132999,121.737675 C10.0054738,121.737675 0.0245004543,131.733092 0.0245004543,144.067236 C0.0245004543,156.40138 10.0030245,166.399251 22.3132999,166.399251 L97.8845768,166.399251 L97.8845768,204.437299 C97.8845768,204.655711 97.9139686,204.86676 97.9482591,205.075356 C94.5290103,206.216498 91.8568036,208.896339 90.7178705,212.319764 C90.5096784,212.282953 90.299037,212.255958 90.0810476,212.255958 L43.7742297,212.255958 C41.7461939,212.255958 40.1002518,213.905091 40.1002518,215.937059 C40.1002518,217.969027 41.7461939,219.618161 43.7742297,219.618161 L90.0810476,219.618161 C90.299037,219.618161 90.5096784,219.588712 90.7178705,219.554355 C92.236448,224.118921 96.4884652,227.43682 101.558555,227.43682 C106.623746,227.43682 110.875763,224.118921 112.39434,219.554355 C112.602532,219.591166 112.813174,219.618161 113.031163,219.618161 L159.337981,219.618161 C161.366017,219.618161 163.011959,217.969027 163.011959,215.937059 C163.011959,213.905091 161.366017,212.255958 159.337981,212.255958 L113.028714,212.255958 C112.810724,212.255958 112.600083,212.285407 112.391891,212.319764 C111.252958,208.896339 108.580751,206.216498 105.166401,205.075356 C105.203141,204.86676 105.230083,204.655711 105.230083,204.437299 L105.230083,166.399251 L126.049292,166.399251 C134.134492,184.151976 151.977779,196.547471 172.691666,196.547471 C200.96905,196.547471 223.9755,173.496415 223.9755,145.164204 C223.9755,125.327976 212.676793,108.115146 196.207574,99.5553582 Z M22.3990261,93.8692836 C16.471675,93.8692836 11.6685612,89.0568571 11.6685612,83.1180135 C11.6685612,77.17917 16.471675,72.3667434 22.3990261,72.3667434 C28.3263772,72.3667434 33.129491,77.17917 33.129491,83.1180135 C33.129491,89.0568571 28.3263772,93.8692836 22.3990261,93.8692836 Z M22.3990261,154.45285 C16.471675,154.45285 11.6685612,149.640424 11.6685612,143.70158 C11.6685612,137.762736 16.471675,132.95031 22.3990261,132.95031 C28.3263772,132.95031 33.129491,137.762736 33.129491,143.70158 C33.129491,149.640424 28.3263772,154.45285 22.3990261,154.45285 Z M22.3132999,45.22721 L180.796462,45.22721 C193.104288,45.22721 203.085261,35.2317927 203.085261,22.8976491 C203.085261,10.5635054 193.106737,0.565634043 180.796462,0.565634043 L22.3132999,0.565634043 C10.0054738,0.565634043 0.0245004543,10.5610513 0.0245004543,22.8976491 C0.0245004543,35.2293387 10.0030245,45.22721 22.3132999,45.22721 Z M22.3990261,11.7782688 C28.3263772,11.7782688 33.129491,16.5956035 33.129491,22.531993 C33.129491,28.4683825 28.3263772,33.2857171 22.3990261,33.2857171 C16.471675,33.2857171 11.6685612,28.4683825 11.6685612,22.531993 C11.6685612,16.5956035 16.471675,11.7782688 22.3990261,11.7782688 Z" id="path-2"></path>
        <filter x="-50%" y="-50%" width="200%" height="200%" filterUnits="objectBoundingBox" id="filter-3">
            <feOffset dx="0" dy="2" in="SourceAlpha" result="shadowOffsetOuter1"></feOffset>
            <feGaussianBlur stdDeviation="2" in="shadowOffsetOuter1" result="shadowBlurOuter1"></feGaussianBlur>
            <feColorMatrix values="0 0 0 0 0   0 0 0 0 0   0 0 0 0 0  0 0 0 0.5 0" type="matrix" in="shadowBlurOuter1"></feColorMatrix>
        </filter>
        <radialGradient cx="50%" cy="54.9447265%" fx="50%" fy="54.9447265%" r="174.063671%" id="radialGradient-4">
            <stop stop-color="#FFFFFF" offset="0%"></stop>
            <stop stop-color="#8FD37F" offset="100%"></stop>
        </radialGradient>
        <circle id="path-5" cx="175.5" cy="146.5" r="51.5"></circle>
        <filter x="-50%" y="-50%" width="200%" height="200%" filterUnits="objectBoundingBox" id="filter-6">
            <feMorphology radius="2" operator="dilate" in="SourceAlpha" result="shadowSpreadOuter1"></feMorphology>
            <feOffset dx="0" dy="1" in="shadowSpreadOuter1" result="shadowOffsetOuter1"></feOffset>
            <feGaussianBlur stdDeviation="2.5" in="shadowOffsetOuter1" result="shadowBlurOuter1"></feGaussianBlur>
            <feComposite in="shadowBlurOuter1" in2="SourceAlpha" operator="out" result="shadowBlurOuter1"></feComposite>
            <feColorMatrix values="0 0 0 0 0   0 0 0 0 0   0 0 0 0 0  0 0 0 0.5 0" type="matrix" in="shadowBlurOuter1"></feColorMatrix>
        </filter>
    </defs>
    <g id="Playground" stroke="none" stroke-width="1" fill="none" fill-rule="evenodd">
        <g id="servers-icon" transform="translate(4.000000, 2.000000)">
            <g id="Shape" fill-rule="nonzero">
                <use fill="black" fill-opacity="1" filter="url(#filter-3)" xlink:href="#path-2"></use>
                <use fill="url(#radialGradient-1)" fill-rule="evenodd" xlink:href="#path-2"></use>
            </g>
            <g id="Oval-2">
                <use fill="black" fill-opacity="1" filter="url(#filter-6)" xlink:href="#path-5"></use>
                <use stroke="#31A217" stroke-width="4" fill="url(#radialGradient-4)" fill-rule="evenodd" xlink:href="#path-5"></use>
            </g>
            <path d="M194.792068,140.227114 L192.957911,140.227114 L192.950485,131.746892 C192.943059,122.508893 184.841579,114.993116 174.883664,115.000005 C164.925749,115.006894 156.824268,122.522671 156.831694,131.76067 L156.846546,140.240892 L156.193081,140.240892 C152.769815,140.247781 149.992589,142.824225 150.000015,146.000002 L150.000015,171.247778 C150.000015,174.423556 152.784667,177 156.207932,177 L194.806919,176.979333 C198.230185,176.979333 201.007411,174.402889 200.999985,171.227112 L200.999985,145.972447 C200.999985,142.796669 198.215333,140.227114 194.792068,140.227114 Z M164.184883,140.641242 L164.170032,132.16102 C164.170032,126.326132 169.27894,121.579688 175.56854,121.572799 C181.858141,121.572799 186.974474,126.319243 186.974474,132.147243 L186.989326,140.627464 L164.184883,140.641242 Z" id="Shape" fill="#31A217" fill-rule="nonzero"></path>
        </g>
    </g>
</svg>

<svg width="237" height="236" viewBox="0 0 237 236" xmlns="http://www.w3.org/2000/svg" xmlns:xlink="http://www.w3.org/1999/xlink"><title>servers-icon</title><defs><radialGradient cy="0%" fx="50%" fy="0%" r="233.931%" id="c"><stop stop-color="#FFF" offset="0%"/><stop stop-color="#FAFAFA" offset="9.215%"/><stop stop-color="#FAFAFA" offset="9.215%"/><stop stop-color="#FFF" offset="23.372%"/><stop stop-color="#31A217" offset="100%"/></radialGradient><path d="M196.208 99.555c4.222-4.061 6.877-9.747 6.877-16.074 0-12.331-9.978-22.332-22.289-22.332H22.313C10.005 61.15.025 71.147.025 83.481c0 12.334 9.978 22.332 22.288 22.332h117.47a51.615 51.615 0 0 0-12.678 15.925H22.313c-12.308 0-22.288 9.995-22.288 22.33 0 12.333 9.978 22.331 22.288 22.331h75.572v38.038c0 .219.029.43.063.638a11.429 11.429 0 0 0-7.23 7.245 3.638 3.638 0 0 0-.637-.064H43.774a3.679 3.679 0 0 0-3.674 3.681 3.679 3.679 0 0 0 3.674 3.681h46.307c.218 0 .429-.03.637-.064 1.518 4.565 5.77 7.883 10.84 7.883 5.066 0 9.318-3.318 10.836-7.883.209.037.42.064.637.064h46.307a3.679 3.679 0 0 0 3.674-3.68 3.679 3.679 0 0 0-3.674-3.682h-46.31c-.217 0-.428.03-.636.064a11.432 11.432 0 0 0-7.226-7.245c.037-.208.064-.42.064-.638V166.4h20.82c8.084 17.753 25.928 30.148 46.642 30.148 28.277 0 51.284-23.05 51.284-51.383 0-19.836-11.3-37.049-27.768-45.609zM22.399 93.87c-5.927 0-10.73-4.812-10.73-10.751 0-5.939 4.803-10.751 10.73-10.751 5.927 0 10.73 4.812 10.73 10.751 0 5.939-4.803 10.751-10.73 10.751zm0 60.584c-5.927 0-10.73-4.813-10.73-10.751 0-5.94 4.803-10.752 10.73-10.752 5.927 0 10.73 4.813 10.73 10.752 0 5.938-4.803 10.75-10.73 10.75zm-.086-109.226h158.483c12.308 0 22.29-9.995 22.29-22.33 0-12.333-9.98-22.331-22.29-22.331H22.313C10.005.566.025 10.56.025 22.898c0 12.331 9.978 22.33 22.288 22.33zm.086-33.449c5.927 0 10.73 4.818 10.73 10.754S28.326 33.286 22.4 33.286c-5.927 0-10.73-4.818-10.73-10.754s4.803-10.754 10.73-10.754z" id="b"/><filter x="-50%" y="-50%" width="200%" height="200%" filterUnits="objectBoundingBox" id="a"><feOffset dy="2" in="SourceAlpha" result="shadowOffsetOuter1"/><feGaussianBlur stdDeviation="2" in="shadowOffsetOuter1" result="shadowBlurOuter1"/><feColorMatrix values="0 0 0 0 0 0 0 0 0 0 0 0 0 0 0 0 0 0 0.5 0" in="shadowBlurOuter1"/></filter><radialGradient cy="54.945%" fx="50%" fy="54.945%" r="174.064%" id="f"><stop stop-color="#FFF" offset="0%"/><stop stop-color="#8FD37F" offset="100%"/></radialGradient><circle id="e" cx="175.5" cy="146.5" r="51.5"/><filter x="-50%" y="-50%" width="200%" height="200%" filterUnits="objectBoundingBox" id="d"><feMorphology radius="2" operator="dilate" in="SourceAlpha" result="shadowSpreadOuter1"/><feOffset dy="1" in="shadowSpreadOuter1" result="shadowOffsetOuter1"/><feGaussianBlur stdDeviation="2.5" in="shadowOffsetOuter1" result="shadowBlurOuter1"/><feComposite in="shadowBlurOuter1" in2="SourceAlpha" operator="out" result="shadowBlurOuter1"/><feColorMatrix values="0 0 0 0 0 0 0 0 0 0 0 0 0 0 0 0 0 0 0.5 0" in="shadowBlurOuter1"/></filter></defs><g fill="none" fill-rule="evenodd"><g fill-rule="nonzero" transform="translate(4 2)"><use fill="#000" filter="url(#a)" xlink:href="#b"/><use fill="url(#c)" fill-rule="evenodd" xlink:href="#b"/></g><g transform="translate(4 2)"><use fill="#000" filter="url(#d)" xlink:href="#e"/><use stroke="#31A217" stroke-width="4" fill="url(#f)" xlink:href="#e"/></g><path d="M198.792 142.227h-1.834l-.008-8.48c-.007-9.238-8.108-16.754-18.066-16.747-9.958.007-18.06 7.523-18.052 16.76l.015 8.48h-.654c-3.423.008-6.2 2.584-6.193 5.76v25.248c0 3.176 2.785 5.752 6.208 5.752l38.599-.02c3.423 0 6.2-2.577 6.193-5.753v-25.255c0-3.175-2.785-5.745-6.208-5.745zm-30.607.414l-.015-8.48c0-5.835 5.109-10.581 11.399-10.588 6.29 0 11.405 4.746 11.405 10.574l.015 8.48-22.804.014z" fill="#31A217" fill-rule="nonzero"/></g></svg>
